X:1
T:Title
%%score { ( 1 4 ) | ( 2 3 ) }
L:1/8
M:4/4
K:G
V:1 treble nm="Grand Piano"
V:4 treble 
V:2 treble 
V:3 treble 
V:1
 z4 z2[Q:1/4=100] GA | B2 d2 d2 B>A | [EG]2 [EG]2 E2 G2 | D2 [B,DG]>[B,DG] [DGB]2 [DG]2 | %4
 [DFA]6 [B,G]A | B2 d2 d2 B>A | [EG]2 [EG]2 E2 G2 | D2 G>G [DGB]2 [CFA]2 |[M:3/4] [B,DG]6 | %9
[M:1/4] [DB]2 |[M:4/4] [DA]2 [DA]2 [^CA]2 [CE]2 | [DF]2 [DF]>[EG] [FA]2 [GB]>[GB] | %12
 [FA]2 d2 d^c[GB][Gc] | [Fd]6 [Ac]2 | B2 d2 d2 B>A | [EG]2 [EG]2 E2 G2 | %16
 D2 [B,DG]2 [DA]2 [DG]>[EA] | [GB]3 [GB] [CFA]2 [CFA]2 |[M:3/4] [B,G]6 |] %19
V:2
 z4 z2 [G,D]-[G,CD] | [G,DG]2 [G,B,G]2 [G,B,G]2 [G,DG]>[K:bass][G,B,D] | %2
 [C,C]2 [C,C]2 [C,G,C]2 [C,E,C]2 | [B,,G,]2 G,,>G,, G,2 B,,2 | D,6[K:treble] z C | %5
 [G,DG]2 [G,B,G]2 [G,B,G]2 [G,DG]>[K:bass][G,B,D] | [C,C]2 [C,C]2 [C,G,C]2 [C,E,C]2 | %7
 [D,G,B,]2 [D,B,D]>[D,B,D] D,2 D,2 |[M:3/4] G,,6 |[M:1/4] [G,,G,]2 | %10
[M:4/4] [D,F,]2 [D,F,]2 [A,,E,]2 [A,,A,]2 | [D,A,]2 [D,A,]>[D,A,] [D,D]2 [G,D]>[G,D] | %12
 [D,D]2 [F,A,D]2[K:treble] FA[K:bass][A,,A,][A,,A,] | [D,A,]6 [D,D]2 | %14
 [G,DG]2 [G,B,G]2 [G,B,G]2 [G,DG]>[G,B,D] | [C,C]2 [C,C]2 [C,G,C]2 [C,E,C]2 | %16
 [B,,G,]2 G,,2 [D,F,]2 [B,,G,]>[C,G,] | [D,G,]3 [D,G,] D,2 D,2 |[M:3/4] G,,6 |] %19
V:3
 z4 z2 .B,2 | x15/2[K:bass] x/ | x8 | x8 | z4 z2[K:treble] G,2 | x15/2[K:bass] x/ | x8 | x8 | %8
[M:3/4] x6 |[M:1/4] x2 |[M:4/4] x8 | x8 | z4[K:treble] A,2[K:bass] z2 | x8 | x8 | x8 | x8 | x8 | %18
[M:3/4] x6 |] %19
V:4
 x8 | x8 | x8 | x8 | z4 z2 D2 | x8 | x8 | x8 |[M:3/4] x6 |[M:1/4] x2 |[M:4/4] x8 | x8 | x8 | x8 | %14
 x8 | x8 | x8 | x8 |[M:3/4] x6 |] %19

